svg/300/outlined/fit_screen-fill.svg

<svg xmlns="http://www.w3.org/2000/svg" width="48" height="48" viewBox="0 -960 960 960"><path d="M814.615-607.307v-114.999q0-4.616-3.846-8.463-3.847-3.846-8.463-3.846H687.307v-45.384h114.999q23.529 0 40.611 17.082 17.082 17.082 17.082 40.611v114.999h-45.384Zm-714.614 0v-114.999q0-23.529 17.082-40.611 17.082-17.082 40.611-17.082h114.999v45.384H157.694q-4.616 0-8.463 3.846-3.846 3.847-3.846 8.463v114.999h-45.384Zm587.306 427.306v-45.384h114.999q4.616 0 8.463-3.846 3.846-3.847 3.846-8.463v-114.999h45.384v114.999q0 23.529-17.082 40.611-17.082 17.082-40.611 17.082H687.307Zm-529.613 0q-23.529 0-40.611-17.082-17.082-17.082-17.082-40.611v-114.999h45.384v114.999q0 4.616 3.846 8.463 3.847 3.846 8.463 3.846h114.999v45.384H157.694Zm70-127.693v-344.612h504.612v344.612H227.694Z"/></svg>

<svg xmlns="http://www.w3.org/2000/svg" width="48" height="48" viewBox="0 -960 960 960"><path d="M814.61-607.31v-115q0-4.61-3.84-8.46-3.85-3.84-8.46-3.84h-115V-780h115q23.53 0 40.61 17.08T860-722.31v115h-45.39Zm-714.61 0v-115q0-23.53 17.08-40.61T157.69-780h115v45.39h-115q-4.61 0-8.46 3.84-3.84 3.85-3.84 8.46v115H100ZM687.31-180v-45.39h115q4.61 0 8.46-3.84 3.84-3.85 3.84-8.46v-115H860v115q0 23.53-17.08 40.61T802.31-180h-115Zm-529.62 0q-23.53 0-40.61-17.08T100-237.69v-115h45.39v115q0 4.61 3.84 8.46 3.85 3.84 8.46 3.84h115V-180h-115Zm70-127.69v-344.62h504.62v344.62H227.69Z"/></svg>
